icons/union.svg

<svg xmlns="http://www.w3.org/2000/svg" viewBox="0 0 24 24" fill="currentColor">
  <path d="M3.29999 12.0001c0-2.84427 2.30575-5.15 5.15002-5.15.82833 0 1.61099.19556 2.30429.54302-1.14838 1.19514-1.85431 2.81858-1.85431 4.60698 0 1.7883.70594 3.4118 1.85431 4.607-.6933.3475-1.47596.543-2.30429.543-2.84426 0-5.15002-2.3057-5.15002-5.15ZM12 17.6243c-1.0272.6497-2.24467 1.0258-3.54999 1.0258-3.67269 0-6.65002-2.9773-6.65002-6.65 0-3.67271 2.97733-6.65 6.65002-6.65 1.30532 0 2.52279.37608 3.54999 1.02581 1.0272-.64973 2.2447-1.02581 3.55-1.02581 3.6727 0 6.65 2.97729 6.65 6.65 0 3.6727-2.9773 6.65-6.65 6.65-1.3053 0-2.5228-.3761-3.55-1.0258Zm1.2457-10.23118c.6933-.34746 1.476-.54302 2.3043-.54302 2.8443 0 5.15 2.30573 5.15 5.15 0 2.8443-2.3057 5.15-5.15 5.15-.8283 0-1.611-.1955-2.3043-.543 1.1484-1.1952 1.8543-2.8187 1.8543-4.607 0-1.7884-.7059-3.41184-1.8543-4.60698ZM12 8.26912c.9857.93814 1.6 2.26278 1.6 3.73098 0 1.4682-.6143 2.7928-1.6 3.731-.9856-.9382-1.6-2.2628-1.6-3.731s.6144-2.79284 1.6-3.73098Z"/>
</svg>

<svg width="24" height="24" viewBox="0 0 24 24" fill="none" xmlns="http://www.w3.org/2000/svg">
<path fill-rule="evenodd" clip-rule="evenodd" d="M3.29999 12.0001C3.29999 9.15583 5.60574 6.8501 8.45001 6.8501C9.27834 6.8501 10.061 7.04566 10.7543 7.39312C9.60592 8.58826 8.89999 10.2117 8.89999 12.0001C8.89999 13.7884 9.60593 15.4119 10.7543 16.6071C10.061 16.9546 9.27834 17.1501 8.45001 17.1501C5.60575 17.1501 3.29999 14.8444 3.29999 12.0001ZM12 17.6243C10.9728 18.274 9.75533 18.6501 8.45001 18.6501C4.77732 18.6501 1.79999 15.6728 1.79999 12.0001C1.79999 8.32739 4.77732 5.3501 8.45001 5.3501C9.75533 5.3501 10.9728 5.72618 12 6.37591C13.0272 5.72618 14.2447 5.3501 15.55 5.3501C19.2227 5.3501 22.2 8.32739 22.2 12.0001C22.2 15.6728 19.2227 18.6501 15.55 18.6501C14.2447 18.6501 13.0272 18.274 12 17.6243ZM13.2457 7.39312C13.939 7.04566 14.7217 6.8501 15.55 6.8501C18.3943 6.8501 20.7 9.15583 20.7 12.0001C20.7 14.8444 18.3943 17.1501 15.55 17.1501C14.7217 17.1501 13.939 16.9546 13.2457 16.6071C14.3941 15.4119 15.1 13.7884 15.1 12.0001C15.1 10.2117 14.3941 8.58826 13.2457 7.39312ZM12 8.26912C12.9857 9.20726 13.6 10.5319 13.6 12.0001C13.6 13.4683 12.9857 14.7929 12 15.7311C11.0144 14.7929 10.4 13.4683 10.4 12.0001C10.4 10.5319 11.0144 9.20726 12 8.26912Z" fill="black"/>
</svg>
